icons/bot.svg

<svg width="24" height="24" viewBox="0 0 24 24" fill="none" xmlns="http://www.w3.org/2000/svg">
<path d="M12 6.06433L18 6.06433C20.2091 6.06433 22 8.1589 22 10.7427V17.3216C22 19.9054 20.2091 22 18 22L6 22C3.79086 22 2 19.9054 2 17.3216L2 10.7427C2 8.1589 3.79086 6.06433 6 6.06433L12 6.06433ZM12 6.06433V2.3994M15.3333 2C13.1344 2.53254 10.8656 2.53254 8.66667 2" stroke="black" stroke-width="2" stroke-linecap="round" stroke-linejoin="round"/>
<path d="M8 12L8 10.5" stroke="black" stroke-width="2" stroke-linecap="round" stroke-linejoin="round"/>
<path d="M16 12L16 10.5" stroke="black" stroke-width="2" stroke-linecap="round" stroke-linejoin="round"/>
<path d="M15.75 16.5C14.6875 17.2875 13.3937 17.75 12 17.75C10.6062 17.75 9.3125 17.2875 8.25 16.5" stroke="black" stroke-width="2" stroke-linecap="round" stroke-linejoin="round"/>
</svg>

<svg xmlns="http://www.w3.org/2000/svg" width="24" height="24" viewBox="0 0 24 24" fill="none" stroke="currentColor" stroke-width="2" stroke-linecap="round" stroke-linejoin="round">
<path d="M12 6.064h6c2.21 0 4 2.095 4 4.679v6.579C22 19.905 20.21 22 18 22H6c-2.21 0-4-2.095-4-4.678v-6.58C2 8.16 3.79 6.065 6 6.065zm0 0V2.4m3.333-.4a14.1 14.1 0 0 1-6.666 0M8 12v-1.5m8 1.5v-1.5"/><path d="M15.75 16.5A6.27 6.27 0 0 1 12 17.75a6.27 6.27 0 0 1-3.75-1.25"/>
</svg>
